qml/icons/navigation/off-ramp-left-white.svg

<svg id="WORKING_ICONS" data-name="WORKING ICONS" xmlns="http://www.w3.org/2000/svg" width="20" height="20" viewBox="0 0 20 20">
  <title>direction</title>
  <path fill="#ffffff" d="M14.5029,2.2A0.29744,0.29744,0,0,1,14.8,2.49712V17.50288A0.29744,0.29744,0,0,1,14.5029,17.8H13.4971A0.29744,0.29744,0,0,1,13.2,17.50288V2.49712A0.29744,0.29744,0,0,1,13.4971,2.2h1.0058m0-.2H13.4971A0.49711,0.49711,0,0,0,13,2.49712V17.50288A0.49711,0.49711,0,0,0,13.4971,18h1.0058A0.49711,0.49711,0,0,0,15,17.50288V2.49712A0.49711,0.49711,0,0,0,14.5029,2h0ZM9.00078,5.98169H7.01323a0.35757,0.35757,0,0,1-.37738-0.54242L7.9796,2.48743A0.38659,0.38659,0,0,0,7.35606,2.078L1.00908,7l6.347,4.88544A0.38659,0.38659,0,0,0,7.9796,11.476L6.63585,8.52417a0.3576,0.3576,0,0,1,.37738-0.54248H9.012a4.05782,4.05782,0,0,1,3.98877,4.07324v5.44885A0.49622,0.49622,0,0,0,13.497,18h1.00647a0.49614,0.49614,0,0,0,.49615-0.49683L14.99766,16h0.00311V12.05493a6.06019,6.06019,0,0,0-5.989-6.07324l-0.011-.00183"/>
</svg>

<svg data-name="WORKING ICONS" xmlns="http://www.w3.org/2000/svg" width="20" height="20"><path fill="#fff" d="M14.503 2.2a.297.297 0 0 1 .297.297v15.006a.297.297 0 0 1-.297.297h-1.006a.297.297 0 0 1-.297-.297V2.497a.297.297 0 0 1 .297-.297h1.006m0-.2h-1.006a.497.497 0 0 0-.497.497v15.006a.497.497 0 0 0 .497.497h1.006a.497.497 0 0 0 .497-.497V2.497A.497.497 0 0 0 14.503 2ZM9 5.982H7.013a.358.358 0 0 1-.377-.543L7.98 2.487a.387.387 0 0 0-.624-.409L1.01 7l6.347 4.885a.387.387 0 0 0 .624-.409L6.636 8.524a.358.358 0 0 1 .377-.542h1.999a4.058 4.058 0 0 1 3.989 4.073v5.449a.496.496 0 0 0 .496.496h1.006a.496.496 0 0 0 .497-.497L14.998 16H15v-3.945a6.06 6.06 0 0 0-5.99-6.073L9 5.98"/></svg>
